X:0308
T:Quick Step 12th. Regt.
M:2/4
L:1/16
Q:1/4=88
I: :: ::
Z:Jack Campin * www.campin.me.uk * 2009
K:G
g2d2B2G2|e2c2B2A2 |d2G2F2G2|AGFE D2D2|\
g2d2B2G2|e2c2B2A2 |d2G2A2F2|G4   G4 :|
D2B2B2A2|GFGA G2e2|d2c2B2A2|BABc B2B2|\
D2B2B2A2|GFGA G2e2|d2c2B2A2|G4   G4 :|

